Assets/Icons/payment/voucher-percentage.svg

<svg enable-background="new 0 0 60 60" viewBox="0 0 60 60" xmlns="http://www.w3.org/2000/svg"><path d="m56.5 10.5h-53c-1.1 0-2 .9-2 2v25.5c0 6.35 5.15 11.5 11.5 11.5h43.5c1.1 0 2-.9 2-2v-35c0-1.1-.9-2-2-2zm-1 36h-42.5c-4.69 0-8.5-3.81-8.5-8.5v-24.5h51z"/><path d="m30.23 42.58c1.06 1.06 2.78 1.06 3.85 0l15.95-15.95c.21-.21.21-.56 0-.77l-1.54-1.54c-.21-.21-.56-.21-.77 0l-17.49 17.49c-.21.22-.21.56 0 .77z"/><path d="m34.32 33.37c2.73 0 4.95-2.22 4.95-4.95s-2.22-4.95-4.95-4.95-4.95 2.22-4.95 4.95 2.22 4.95 4.95 4.95zm0-6.64c.93 0 1.69.76 1.69 1.69s-.76 1.69-1.69 1.69-1.69-.76-1.69-1.69.76-1.69 1.69-1.69z"/><path d="m45.93 35.08c-2.73 0-4.95 2.22-4.95 4.95s2.22 4.95 4.95 4.95 4.95-2.22 4.95-4.95-2.22-4.95-4.95-4.95zm0 6.64c-.93 0-1.69-.76-1.69-1.69s.76-1.69 1.69-1.69 1.69.76 1.69 1.69-.76 1.69-1.69 1.69z"/><circle cx="13.5" cy="18" r="1.5"/><circle cx="13.5" cy="42" r="1.5"/><circle cx="13.5" cy="36" r="1.5"/><circle cx="13.5" cy="30" r="1.5"/><circle cx="13.5" cy="24" r="1.5"/></svg>

<?xml version="1.0" encoding="utf-8"?>
<!-- Generator: Adobe Illustrator 21.1.0, SVG Export Plug-In . SVG Version: 6.00 Build 0)  -->
<svg version="1.1" id="eps" xmlns="http://www.w3.org/2000/svg" xmlns:xlink="http://www.w3.org/1999/xlink" x="0px" y="0px"
	 viewBox="0 0 60 60" style="enable-background:new 0 0 60 60;" xml:space="preserve">
<g>
	<path d="M56.5,10.5h-53c-1.1,0-2,0.9-2,2V38c0,6.35,5.15,11.5,11.5,11.5h43.5c1.1,0,2-0.9,2-2v-35C58.5,11.4,57.6,10.5,56.5,10.5z
		 M55.5,46.5H13c-4.69,0-8.5-3.81-8.5-8.5V13.5h51V46.5z"/>
	<path d="M30.23,42.58c1.06,1.06,2.78,1.06,3.85,0l15.95-15.95c0.21-0.21,0.21-0.56,0-0.77l-1.54-1.54c-0.21-0.21-0.56-0.21-0.77,0
		L30.23,41.81C30.02,42.03,30.02,42.37,30.23,42.58z"/>
	<path d="M34.32,33.37c2.73,0,4.95-2.22,4.95-4.95s-2.22-4.95-4.95-4.95s-4.95,2.22-4.95,4.95S31.59,33.37,34.32,33.37z
		 M34.32,26.73c0.93,0,1.69,0.76,1.69,1.69s-0.76,1.69-1.69,1.69s-1.69-0.76-1.69-1.69S33.39,26.73,34.32,26.73z"/>
	<path d="M45.93,35.08c-2.73,0-4.95,2.22-4.95,4.95s2.22,4.95,4.95,4.95s4.95-2.22,4.95-4.95S48.66,35.08,45.93,35.08z M45.93,41.72
		c-0.93,0-1.69-0.76-1.69-1.69s0.76-1.69,1.69-1.69s1.69,0.76,1.69,1.69C47.62,40.96,46.86,41.72,45.93,41.72z"/>
	<circle cx="13.5" cy="18" r="1.5"/>
	<circle cx="13.5" cy="42" r="1.5"/>
	<circle cx="13.5" cy="36" r="1.5"/>
	<circle cx="13.5" cy="30" r="1.5"/>
	<circle cx="13.5" cy="24" r="1.5"/>
</g>
</svg>
